!!!!SEGMENT: pl-kk--kk-i-350--004_anonim--gaudeamus.krn
!!!cenid: 17xx:2064
!!!COM: Anonim
!!!COM-rismID: pe30004985
!!!CDT:
!!!CNT:
!!!OTL: Gaudeamus
!!!PDT:
!!!AGN: Sacred
!!!SMS-siglum: PL-Kk
!!!SMS-shelfmark: Kk.I.350
!!!SMS-shelfwork: 004 W
!!!SMS-variant:
!!!SMS-altvar:
!!!NIFC-rismSourceID: 1001145761
!!!NIFC-islandoraID: pl-kk:5809
!!!URL-pdf-islandora: https://repozytorium.nifc.pl/islandora/object/pl-kk%3A5809/datastream/PDF/view
!!!URL-scan: https://polish.musicsources.pl/pl/lokalizacje/galeria/rekopisy/5966 @EN{Scan on Polish Music Sources Website} @PL{Skany w portalu Dziedzictwo Muzyki Polskiej w otwartym dostępie}
!!!ONB-nifc: UWAGA: utwory w zbiorze: 1. Gaudeamus, 2. Alleluia assumpta est Maria, 3. Surge propera, 4. Gaudeamus, 5. Propter veritatem, 6. Quae est ista, 7. Gaudeamus omnes, 8. Alleluia assumpta est Maria, 9. Nigra sum
!!!AIN: 1 alto 1 empty 1 tenor 1 vox
!!!key:
**kern	**text	**dynam	**kern	**text	**dynam	**kern	**text	**dynam	**kern	**text	**dynam
*part4	*part4	*part4	*part3	*part3	*part3	*part2	*part2	*part2	*part1	*part1	*part1
*staff4	*staff4	*	*staff3	*staff3	*	*staff2	*staff2	*	*staff1	*staff1	*
*Iempty	*	*	*Itenor	*	*	*Ialto	*	*	*Ivox	*	*
*I"Baſso Eripieno	*	*	*I"Tenore	*	*	*I"Alto	*	*	*I"Canto	*	*
*I'B	*	*	*I'T	*	*	*I'A	*	*	*I'S	*	*
*clefF4	*	*	*clefC4	*	*	*clefC3	*	*	*clefC1	*	*
*k[b-]	*	*	*k[b-]	*	*	*k[b-]	*	*	*k[b-]	*	*
*F:	*	*	*F:	*	*	*F:	*	*	*F:	*	*
*M3/2	*	*	*M3/2	*	*	*M3/2	*	*	*M3/2	*	*
=1	=1	=1	=1	=1	=1	=1	=1	=1	=1	=1	=1
4F\	Gau-	.	4A\	Gau-	.	4a\	Gau-	.	4cc\	Gau-	.
4G\	.	.	4B-\	.	.	4g\	.	.	4b-\	.	.
4A\	.	.	4c\	.	.	4f\	.	.	4a\	.	.
4G\	.	.	4B-\	.	.	4g\	.	.	4b-\	.	.
4A\	.	.	4c\	.	.	4f\	.	.	4a\	.	.
4F\	-de-	.	4A\	-de-	.	4a\	-de-	.	4cc\	-de-	.
=2	=2	=2	=2	=2	=2	=2	=2	=2	=2	=2	=2
4E\	-a-	.	4G/	-a-	.	1g\	-a-	.	1cc\	-a-	.
4D\	.	.	4F/	.	.	.	.	.	.	.	.
4C\	.	.	4E/	.	.	.	.	.	.	.	.
4D\	.	.	4F/	.	.	.	.	.	.	.	.
*	*	*	*	*	*	*2\right	*	*	*2\right	*	*
4E\	-mus	.	4G/	-mus	.	2g\	-mus	.	2cc\	-mus	.
4C\	.	.	4B-/	.	.	.	.	.	.	.	.
=3	=3	=3	=3	=3	=3	=3	=3	=3	=3	=3	=3
4F\	om-	.	4A\	om-	.	2a\	om-	.	4cc\	om-	.
4A\	.	.	4c\	.	.	.	.	.	4ff\	.	.
4c\	-nes	.	4A\	-nes	.	2f\	-nes	.	2cc\	-nes	.
4A\	.	.	4c\	.	.	.	.	.	.	.	.
4F\	in	.	4A\	in	.	2f\	in	.	2cc\	in	.
4A\	.	.	4c\	.	.	.	.	.	.	.	.
=4	=4	=4	=4	=4	=4	=4	=4	=4	=4	=4	=4
*2\right	*	*	*	*	*	*	*	*	*	*	*
2.c\	Do-	.	2.G/	Do-	.	2.e\	Do-	.	2.cc\	Do-	.
4C/	-mi-	.	4G/	-mi-	.	4e\	-mi-	.	4cc\	-mi-	.
2C/	-no	.	2G/	-no	.	2e\	-no	.	2cc\	-no	.
!LO:LB:g=original	!	!	!LO:LB:g=original	!	!	!	!	!	!	!	!
=5	=5	=5	=5	=5	=5	=5	=5	=5	=5	=5	=5
!	!	!LO:DY:rj:a:t=p&colon;	!	!	!LO:DY:a	!	!	!LO:DY:rj:a	!	!	!LO:DY:rj:a:t=p&colon;
4F\	Gau-	p	4A\	Gau-	p	4a\	Gau-	p	4cc\	Gau-	p
4G\	.	.	4B-\	.	.	4g\	.	.	4b-\	.	.
4A\	.	.	4c\	.	.	4f\	.	.	4a\	.	.
4G\	.	.	4B-\	.	.	4g\	.	.	4b-\	.	.
4A\	.	.	4c\	.	.	4f\	.	.	4a\	.	.
4F\	-de-	.	4A\	-de-	.	4a\	-de-	.	4cc\	-de-	.
=6	=6	=6	=6	=6	=6	=6	=6	=6	=6	=6	=6
4E\	-a-	.	4G/	-a-	.	1g\	-a-	.	1cc\	-a-	.
4D\	.	.	4F/	.	.	.	.	.	.	.	.
4C\	.	.	4E/	.	.	.	.	.	.	.	.
4D\	.	.	4F/	.	.	.	.	.	.	.	.
4E\	-mus	.	4G/	-mus	.	2g\	-mus	.	2cc\	-mus	.
4C\	.	.	4B-/	.	.	.	.	.	.	.	.
!	!	!	!	!	!	!LO:LB:g=original	!	!	!LO:LB:g=original	!	!
=7	=7	=7	=7	=7	=7	=7	=7	=7	=7	=7	=7
4F\	om-	.	4A\	om-	.	2a\	om-	.	4cc\	om-	.
4A\	.	.	4c\	.	.	.	.	.	4ff\	.	.
4c\	-nes	.	4A\	-nes	.	2f\	-nes	.	2cc\	-nes	.
4A\	.	.	4c\	.	.	.	.	.	.	.	.
4F\	in	.	4A\	in	.	2f\	in	.	2cc\	in	.
4A\	.	.	4c\	.	.	.	.	.	.	.	.
=8	=8	=8	=8	=8	=8	=8	=8	=8	=8	=8	=8
2.c\	Do-	.	2.G/	Do-	.	2.e\	Do-	.	2.cc\	Do-	.
4C/	-mi-	.	4G/	-mi-	.	4e\	-mi-	.	4cc\	-mi-	.
2C/	-no	.	2G/	-no	.	2e\	-no	.	2cc\	-no	.
=9	=9	=9	=9	=9	=9	=9	=9	=9	=9	=9	=9
!	!	!LO:DY:a:t=fo	!	!	!LO:DY:rj:a:t=fo	!	!	!	!	!	!
2r	.	f	2r	.	f	2r	.	f	2r	.	.
*	*	*	*2\right	*	*	*	*	*	*	*	*
2D/	Di-	.	2B-\	Di-	.	2g\	Di-	.	2dd\	Di-	.
2C/	-em	.	2A\	-em	.	2f\	-em	.	2cc\	-em	.
=10	=10	=10	=10	=10	=10	=10	=10	=10	=10	=10	=10
1BB-/	fe-	.	1G/	fe-	.	1e\	fe-	.	1cc\	fe-	.
2AA/	-stum	.	2F/	-stum	.	2f\	-stum	.	2cc\	-stum	.
!LO:LB:g=original	!	!	!	!	!	!	!	!	!	!	!
=11	=11	=11	=11	=11	=11	=11	=11	=11	=11	=11	=11
4FF/	ce-	.	4A/	ce-	.	1f\	ce-	.	2.cc\	ce-	.
4AA/	.	.	4F/	.	.	.	.	.	.	.	.
4C/	.	.	4A/	.	.	.	.	.	.	.	.
4F\	.	.	4c/	.	.	.	.	.	4a\	.	.
!	!	!	!LO:LB:g=original	!	!	!	!	!	!	!	!
4A\	-le-	.	2c\	-le-	.	2f\	-le-	.	2a\	-le-	.
4F\	.	.	.	.	.	.	.	.	.	.	.
=12	=12	=12	=12	=12	=12	=12	=12	=12	=12	=12	=12
2c\	-bran-	.	2G/	-bran-	.	2e\	-bran-	.	2cc\	-bran-	.
2C/	-tes	.	2G/	-tes	.	2e\	-tes	.	2cc\	-tes	.
4C#X/	sub	.	4G/	sub	.	4e\	sub	.	4a\	sub	.
4C#/	ho-	.	4G/	ho-	.	4e\	ho-	.	4a\	ho-	.
=13	=13	=13	=13	=13	=13	=13	=13	=13	=13	=13	=13
4D\	-no-	.	2F/	-no-	.	4f\	-no-	.	2a\	-no-	.
4F\	.	.	.	.	.	4a\	.	.	.	.	.
4E\	.	.	2A/	.	.	4g\	.	.	2cc#X\	.	.
4G\	.	.	.	.	.	4b-\	.	.	.	.	.
!	!	!	!	!	!	!LO:LB:g=original	!	!	!LO:LB:g=original	!	!
4F\	-re	.	4A/	-re	.	4a\	-re	.	4dd\	-re	.
4A\	be-	.	4A/	be-	.	4f\	be-	.	4dd\	be-	.
=14	=14	=14	=14	=14	=14	=14	=14	=14	=14	=14	=14
4G\	-a-	.	4B-\	-a-	.	2e\	-a-	.	2cc#X\	-a-	.
4F\	.	.	4A\	.	.	.	.	.	.	.	.
4E\	-tae	.	4A\	-tae	.	4g\	-tae	.	4cc#\	-tae	.
4D\	Ma-	.	4A\	Ma-	.	4f\	Ma-	.	4dd\	Ma-	.
4C#X\	-ri-	.	4A\	-ri-	.	4e\	-ri-	.	4cc#\	-ri-	.
4D\	-ae	.	4A\	-ae	.	4f\	-ae	.	4dd\	-ae	.
=15	=15	=15	=15	=15	=15	=15	=15	=15	=15	=15	=15
2.A\	Vir-	.	2.A\	Vir-	.	2.e\	Vir-	.	2.cc\	Vir-	.
4AA/	-gi-	.	4A\	-gi-	.	4e\	-gi-	.	4cc\	-gi-	.
2AA/	-nis	.	2A\	-nis	.	2e\	-nis	.	2cc\	-nis	.
!LO:LB:g=original	!	!	!	!	!	!	!	!	!	!	!
=16	=16	=16	=16	=16	=16	=16	=16	=16	=16	=16	=16
4A\	de	.	4c#X\	de	.	4g\	de	.	4ee\	de	.
4AA/	cu-	.	4c#\	cu-	.	4g\	cu-	.	4ee\	cu-	.
4C#X/	-jus	.	4c#\	-jus	.	4g\	-jus	.	4ee\	-jus	.
4E\	Aſ-	.	4c#\	aſ-	.	4g\	aſ-	.	4ee\	aſ-	.
4A\	-sum-	.	4c#\	-sum-	.	4g\	-sum-	.	4ee\	-sum-	.
4G\	-pti-	.	4c#\	-pti-	.	4g\	-pti-	.	4ee\	-pti-	.
!	!	!	!LO:LB:g=original	!	!	!	!	!	!	!	!
=17	=17	=17	=17	=17	=17	=17	=17	=17	=17	=17	=17
4F\	-o-	.	2.d\	-o-	.	2a\	-o-	.	2ff\	-o-	.
4D\	.	.	.	.	.	.	.	.	.	.	.
4F\	.	.	.	.	.	2g\	.	.	2ee\	.	.
4A\	.	.	4c#X\	.	.	.	.	.	.	.	.
2d\	-ne	.	2d\	-ne	.	2f\	-ne	.	2dd\	-ne	.
!	!	!	!	!	!	!LO:LB:g=original	!	!	!LO:LB:g=original	!	!
=18	=18	=18	=18	=18	=18	=18	=18	=18	=18	=18	=18
4B-\	gau-	.	1c#X\	gau-	.	1g\	gau-	.	1ee\	gau-	.
4G\	.	.	.	.	.	.	.	.	.	.	.
4E\	.	.	.	.	.	.	.	.	.	.	.
4G\	.	.	.	.	.	.	.	.	.	.	.
4E\	.	.	2c#\	-dent	.	2g\	dent	.	2ee\	-dent	.
4C#X/	-dent	.	.	.	.	.	.	.	.	.	.
=19	=19	=19	=19	=19	=19	=19	=19	=19	=19	=19	=19
2.D/	an-	.	2.A/	an-	.	2.a\	an-	.	2.ff\	an-	.
4AA/	-ge-	.	4A/	-ge-	.	4g\	-ge-	.	4ee\	-ge-	.
2D/	-li	.	2A/	-li	.	2f\	-li	.	2dd\	-li	.
!LO:LB:g=original	!	!	!	!	!	!	!	!	!	!	!
=20	=20	=20	=20	=20	=20	=20	=20	=20	=20	=20	=20
2E\	et	.	2B-X\	et	.	2g\	et	.	2ccn\	et	.
2E\	col	.	2B-\	col	.	2g\	col	.	1cc\	col	.
2F\	.	.	2A\	.	.	2f\	.	.	.	.	.
=21	=21	=21	=21	=21	=21	=21	=21	=21	=21	=21	=21
1B-\	lau-	.	1G/	lau-	.	1e\	lau-	.	1cc\	lau-	.
2A\	-dant	.	2A/	-dant	.	2f\	-dant	.	2cc\	-dant	.
=22	=22	=22	=22	=22	=22	=22	=22	=22	=22	=22	=22
2.E\	fi-	.	2.B-\	fi-	.	2.g\	fi-	.	2.cc\	fi-	.
4E\	-li-	.	4B-\	-li-	.	4g\	-li-	.	4cc\	-li-	.
2F\	-um	.	2A\	-um	.	2f\	-um	.	2cc\	-um	.
=23	=23	=23	=23	=23	=23	=23	=23	=23	=23	=23	=23
2BB-/	De-	.	2B-\	De-	.	2g\	De-	.	2dd\	De-	.
1C/	.	.	2A\	.	.	2f\	.	.	1cc\	.	.
.	.	.	2G\	.	.	2e\	.	.	.	.	.
=24	=24	=24	=24	=24	=24	=24	=24	=24	=24	=24	=24
1.F\	-i	.	1.A\	-i	.	1.f\	-i	.	1.cc\	-i	.
!LO:LB:g=original	!	!	!LO:LB:g=original	!	!	!LO:LB:g=original	!	!	!LO:LB:g=original	!	!
=25||	=25||	=25||	=25||	=25||	=25||	=25||	=25||	=25||	=25||	=25||	=25||
*clefF4	*	*	*clefC4	*	*	*clefC3	*	*	*clefC1	*	*
*k[b-]	*	*	*k[b-]	*	*	*k[b-b-]	*	*	*k[b-]	*	*
*M2/2	*	*	*M2/2	*	*	*M2/2	*	*	*M2/2	*	*
*met(c|)	*	*	*met(c|)	*	*	*met(c|)	*	*	*met(c|)	*	*
!	!	!	!	!	!	!	!	!	!LO:SIC:o:s:t:v=znaki b- B-	!	!
4D\	E-	.	2.A\	E-	.	4f\	E-	.	2dd\	E-	.
4F\	.	.	.	.	.	4a\	.	.	.	.	.
4E\	.	.	.	.	.	4g\	.	.	4cc#X\	.	.
4D\	-ruc-	.	4A\	-ruc-	.	4f\	-ruc-	.	4dd\	-ruc-	.
=26	=26	=26	=26	=26	=26	=26	=26	=26	=26	=26	=26
4AA/	-ta-	.	4c#X\	-ta-	.	2.e\	-ta-	.	2cc\	-ta-	.
4C#X/	.	.	4e\	.	.	.	.	.	.	.	.
4BB-/	.	.	4d\	.	.	.	.	.	2a\	-vit	.
4AA/	-vit	.	4c#\	-vit	.	4e\	-vit	.	.	.	.
=27	=27	=27	=27	=27	=27	=27	=27	=27	=27	=27	=27
8D\L	cor	.	1d\	cor	.	1f\	cor	.	1a\	cor	.
8E\	.	.	.	.	.	.	.	.	.	.	.
8F\	.	.	.	.	.	.	.	.	.	.	.
8E\J	.	.	.	.	.	.	.	.	.	.	.
8D\L	.	.	.	.	.	.	.	.	.	.	.
8E\	.	.	.	.	.	.	.	.	.	.	.
8F\	.	.	.	.	.	.	.	.	.	.	.
8G\J	.	.	.	.	.	.	.	.	.	.	.
=28	=28	=28	=28	=28	=28	=28	=28	=28	=28	=28	=28
4A\	me-	.	4d\	me-	.	4f\	me-	.	4a\	me-	.
4AA/	-um	.	4c#X\	-um	.	4e\	-um	.	4a\	-um	.
2r	.	.	2r	.	.	2r	.	.	2r	.	.
=29	=29	=29	=29	=29	=29	=29	=29	=29	=29	=29	=29
2B-\	ver-	.	2c#X\	ver-	.	2g\	ver-	.	2ee\	ver-	.
2A\	-bum	.	2d\	-bum	.	2f\	-bum	.	2dd\	-bum	.
=30	=30	=30	=30	=30	=30	=30	=30	=30	=30	=30	=30
2G\	bo-	.	2c\	bo-	.	2e\	bo-	.	2b-X\	bo-	.
2F\	-num	.	2d\	-num	.	2f\	-num	.	2a\	-num	.
!LO:LB:g=original	!	!	!	!	!	!	!	!	!	!	!
=31	=31	=31	=31	=31	=31	=31	=31	=31	=31	=31	=31
4E\	di-	.	4A\	di-	.	4g\	di-	.	4cc#X\	di-	.
4D\	-co	.	4A\	-co	.	4f\	-co	.	4dd\	-co	.
4C#X\	e-	.	4A\	e-	.	4e\	e-	.	4ee\	e-	.
4D\	-go	.	4A\	-go	.	4f\	-go	.	4dd\	-go	.
!	!	!	!LO:LB:g=original	!	!	!LO:LB:g=original	!	!	!LO:LB:g=original	!	!
=32	=32	=32	=32	=32	=32	=32	=32	=32	=32	=32	=32
4.BB-/	o-	.	4.c#X\	o-	.	4.g\	o-	.	4.ee\	o-	.
8BB-/	-pe-	.	8c#\	-pe-	.	8g\	-pe-	.	8ee\	-pe-	.
2AA/	-ra	.	2d\	-ra	.	2f\	-ra	.	2dd\	-ra	.
=33	=33	=33	=33	=33	=33	=33	=33	=33	=33	=33	=33
2G\	me-	.	2c\	me-	.	2e\	me-	.	2ee\	me-	.
2F\	-a	.	2d\	-a	.	2d\	-a	.	2a\	-a	.
=34	=34	=34	=34	=34	=34	=34	=34	=34	=34	=34	=34
4D\	Re-	.	1d\	Re-	.	1f\	Re-	.	1a\	Re-	.
4E\	.	.	.	.	.	.	.	.	.	.	.
4F\	.	.	.	.	.	.	.	.	.	.	.
4G\	.	.	.	.	.	.	.	.	.	.	.
=35	=35	=35	=35	=35	=35	=35	=35	=35	=35	=35	=35
2A\	.	.	2d\	.	.	2f\	.	.	1a\	.	.
2AA/	.	.	2c\	.	.	2e\	.	.	.	.	.
=36	=36	=36	=36	=36	=36	=36	=36	=36	=36	=36	=36
2D\	-gi	.	1d\	-gi	.	1f\	-gi	.	1a\	-gi	.
2r	.	.	.	.	.	.	.	.	.	.	.
!LO:TX:b:t=Seque\nGloria	!	!	!LO:TX:b:t=Seque Gloria	!	!	!LO:TX:b:t=Seque Gloria	!	!	!LO:TX:b:t=Seque Gloria	!	!
!LO:PB:g=original	!	!	!LO:PB:g=original	!	!	!LO:PB:g=original	!	!	!LO:PB:g=original	!	!
=37||	=37||	=37||	=37||	=37||	=37||	=37||	=37||	=37||	=37||	=37||	=37||
*clefF4	*	*	*clefC4	*	*	*clefC3	*	*	*clefC1	*	*
*k[b-]	*	*	*k[b-]	*	*	*k[b-b-]	*	*	*k[b-]	*	*
*M3/2	*	*	*M3/2	*	*	*M3/2	*	*	*M3/2	*	*
!	!	!	!	!	!	!	!	!	!LO:SIC:o:s:t:v=znaki b- B-	!	!
4F\	Glo-	.	1c\	Glo-	.	2f\	Glo-	.	2a\	Glo-	.
4FF/	.	.	.	.	.	.	.	.	.	.	.
4AA/	.	.	.	.	.	4f\	.	.	4a\	.	.
4C/	.	.	.	.	.	4a\	.	.	4cc\	.	.
4E\	-ri-	.	4c\	-ri-	.	4g\	-ri-	.	4b-\	-ri-	.
4F\	-a	.	4c\	-a	.	4f\	-a	.	4a\	-a	.
=38	=38	=38	=38	=38	=38	=38	=38	=38	=38	=38	=38
2c\	Pa-	.	2c\	Pa-	.	2f\	Pa-	.	2a\	Pa-	.
2C/	-tri	.	2c\	-tri	.	2e\	-tri	.	2g\	-tri	.
2r	.	.	2r	.	.	2r	.	.	2r	.	.
=39	=39	=39	=39	=39	=39	=39	=39	=39	=39	=39	=39
2.C/	glo-	.	2.e\	glo-	.	2g\	glo-	.	2b-\	glo-	.
.	.	.	.	.	.	2f\	-ri-	.	2a\	-ri-	.
4C/	-ri-	.	4c\	-ri-	.	.	.	.	.	.	.
2C/	-a	.	2c\	-a	.	2e\	-a	.	2g\	-a	.
=40	=40	=40	=40	=40	=40	=40	=40	=40	=40	=40	=40
4F\	Fi-	.	4c\	Fi-	.	4f\	Fi-	.	4a\	Fi-	.
4C\	-li-	.	4B-\	-li-	.	4g\	-li-	.	4b-\	-li-	.
2F\	-o	.	2A\	-o	.	2a\	-o	.	2cc\	-o	.
4F\	et	.	4f\	et	.	4a\	et	.	4cc\	et	.
4F\	Spi-	.	4f\	Spi-	.	4a\	Spi-	.	4cc\	Spi-	.
=41	=41	=41	=41	=41	=41	=41	=41	=41	=41	=41	=41
2F\	-ri-	.	2f\	-ri-	.	2a\	-ri-	.	2cc\	-ri-	.
2C\	-tu-	.	2e\	-tu-	.	2g\	-tu-	.	2b-\	-tu-	.
2F\	-i	.	2c\	-i	.	2f\	-i	.	2a\	-i	.
!LO:LB:g=original	!	!	!	!	!	!	!	!	!LO:LB:g=original	!	!
=42	=42	=42	=42	=42	=42	=42	=42	=42	=42	=42	=42
2C/	San-	.	2c\	San-	.	2f\	San-	.	2a\	San-	.
2C/	-cto	.	2c\	-cto	.	2e\	-cto	.	2g\	-cto	.
2r	.	.	2r	.	.	2r	.	.	2r	.	.
!	!	!	!LO:LB:g=original	!	!	!LO:LB:g=original	!	!	!	!	!
=43	=43	=43	=43	=43	=43	=43	=43	=43	=43	=43	=43
4C\	Si-	.	1c\	Si-	.	1g\	Si-	.	1ee\	Si-	.
4E\	.	.	.	.	.	.	.	.	.	.	.
4G\	.	.	.	.	.	.	.	.	.	.	.
4E\	.	.	.	.	.	.	.	.	.	.	.
4C\	.	.	2B-\	cut	.	2g\	cut	.	2ee\	cut	.
4E\	-cut	.	.	.	.	.	.	.	.	.	.
=44	=44	=44	=44	=44	=44	=44	=44	=44	=44	=44	=44
4F\	e-	.	2.c\	e-	.	2.a\	e-	.	2.ff\	e-	.
4C/	.	.	.	.	.	.	.	.	.	.	.
4AA/	.	.	.	.	.	.	.	.	.	.	.
4C/	.	.	4B-\	.	.	4g\	.	.	4ee\	.	.
2FF/	-rat	.	2A\	-rat	.	2f\	-rat	.	2cc\	-rat	.
=45	=45	=45	=45	=45	=45	=45	=45	=45	=45	=45	=45
*	*	*	*	*ij	*	*	*	*	*	*	*
4F\	e-	.	4A\	e-	.	4f\	e-	.	4cc\	e-	.
4G\	-rat	.	4B-\	-rat	.	4e\	-rat	.	4b-\	-rat	.
*	*	*	*	*Xij	*	*	*	*	*	*	*
2A\	in	.	2c\	in	.	2f\	in	.	2a\	in	.
2F\	prin-	.	2A\	prin-	.	2f\	prin-	.	2cc\	prin-	.
=46	=46	=46	=46	=46	=46	=46	=46	=46	=46	=46	=46
4C/	-ci-	.	4G/	-ci-	.	4e\	-ci-	.	4cc\	-ci-	.
4C/	-pi-	.	4G/	-pi-	.	4e\	-pi-	.	4cc\	-pi-	.
2C/	-o	.	2G/	-o	.	2e\	-o	.	2cc\	-o	.
2E\	et	.	2G/	et	.	2c/	et	.	2cc\	et	.
=47	=47	=47	=47	=47	=47	=47	=47	=47	=47	=47	=47
1F\	nunc	.	1A\	nunc	.	1c\	nunc	.	1ff\	nunc	.
2BB-/	et	.	2B-\	et	.	2d\	et	.	2dd\	et	.
=48	=48	=48	=48	=48	=48	=48	=48	=48	=48	=48	=48
1.C/	sem-	.	2A/	sem-	.	2f\	sem-	.	1.cc\	sem-	.
.	.	.	1G/	.	.	1e\	.	.	.	.	.
!LO:LB:g=original	!	!	!	!	!	!	!	!	!LO:LB:g=original	!	!
=49	=49	=49	=49	=49	=49	=49	=49	=49	=49	=49	=49
2FF/	-per	.	2A/	-per	.	2f\	-per	.	2cc\	-per	.
4F\	et	.	4A\	et	.	2f\	et	.	2cc\	et	.
4A\	in	.	4c\	in	.	.	.	.	.	.	.
4G\	.	.	4B-\	.	.	2f\	in	.	2cc\	in	.
4F\	.	.	4A\	.	.	.	.	.	.	.	.
!	!	!	!LO:LB:g=original	!	!	!LO:LB:g=original	!	!	!	!	!
=50	=50	=50	=50	=50	=50	=50	=50	=50	=50	=50	=50
2.E\	sae-	.	2.G/	sae-	.	2.e\	sae-	.	2.cc\	sae-	.
4D\	-cu-	.	4F/	-cu-	.	4f\	-cu-	.	4dd\	-cu-	.
2C/	-la	.	2E/	-la	.	2g\	-la	.	2ee\	-la	.
=51	=51	=51	=51	=51	=51	=51	=51	=51	=51	=51	=51
2B-\	sae-	.	2E/	sae-	.	2g\	sae-	.	1cc\	sae-	.
2G\	.	.	2B-\	.	.	2e\	.	.	.	.	.
2E\	-cu-	.	2G\	-cu-	.	2g\	-cu-	.	2cc\	-cu-	.
=52	=52	=52	=52	=52	=52	=52	=52	=52	=52	=52	=52
2F\	-lo-	.	2A\	-lo-	.	2f\	-lo-	.	2cc\	-lo-	.
2G\	.	.	2B-\	.	.	2e\	.	.	2b-\	.	.
2A\	-rum	.	2c\	-rum	.	2f\	-rum	.	2a\	-rum	.
=53	=53	=53	=53	=53	=53	=53	=53	=53	=53	=53	=53
2B-\	a-	.	2d\	a-	.	2g\	a-	.	2b-\	a-	.
2c\	.	.	1c\	.	.	2f\	.	.	2a\	.	.
2C/	.	.	.	.	.	2e\	.	.	2g\	.	.
=54	=54	=54	=54	=54	=54	=54	=54	=54	=54	=54	=54
1F\	-men	.	1.c\	-men	.	1.f\	-men.	.	1.a\	-men.	.
2r	.	.	.	.	.	.	.	.	.	.	.
!	!	!	!	!	!	!	!	!	!LO:TX:a:t=Gaudeamus\nDa Capo	!	!
==	==	==	==	==	==	==	==	==	==	==	==
*-	*-	*-	*-	*-	*-	*-	*-	*-	*-	*-	*-
!!!system-decoration: [(s1,s2,s3,s4)]
!!!EED: Leszek Kubiak
!!!EEV: 2021-02-26
!!!ENC: Tomasz Grochalski
!!!END: 2021-02-18
